X:153 
T:Osborn's #5 (polka) 
S:Grier MS
F:file ID: cre.4/153osb_5
B:CRE4.092: gan ainm
L:1/8
M:2/4
%Q:120
R:polka
K:G
GA Gc|GA Gc|Gc Gc|cB B2|
"5"GF Gd|GF Gd|Gd Gd|dc c2 ||
"9"Bd cA|G2 FG|A2 GA|Be d2|
"13"Bd cA|G2 FG|A2 BA|G2 G2 ||
"17"dc d2|ed Bg|fA ce|dG B2|
"21"dc d2|ed Bg|fe cA|G2 G2 |]

%%%

